src/assets/duotone/Scroll.svg

<svg width="24" height="24" viewBox="0 0 24 24"  xmlns="http://www.w3.org/2000/svg">
<path opacity="0.4" d="M16.19 2H7.81C4.17 2 2 4.17 2 7.81V16.18C2 19.83 4.17 22 7.81 22H16.18C19.82 22 21.99 19.83 21.99 16.19V7.81C22 4.17 19.83 2 16.19 2Z" />
<path d="M9.6002 15.7799C9.4102 15.7799 9.2202 15.7099 9.07019 15.5599L6.5802 13.0699C5.9902 12.4799 5.9902 11.5299 6.5802 10.9399L9.07019 8.44992C9.36019 8.15992 9.8402 8.15992 10.1302 8.44992C10.4202 8.73992 10.4202 9.21992 10.1302 9.50992L7.6402 11.9999L10.1302 14.4999C10.4202 14.7899 10.4202 15.2699 10.1302 15.5599C9.9802 15.6999 9.7902 15.7799 9.6002 15.7799Z" />
<path d="M14.3998 15.7802C14.2098 15.7802 14.0198 15.7102 13.8698 15.5602C13.5798 15.2702 13.5798 14.7902 13.8698 14.5002L16.3598 12.0002L13.8698 9.50016C13.5798 9.21016 13.5798 8.73016 13.8698 8.44016C14.1598 8.15016 14.6398 8.15016 14.9298 8.44016L17.4198 10.9302C18.0098 11.5202 18.0098 12.4702 17.4198 13.0602L14.9298 15.5502C14.7898 15.7002 14.5898 15.7802 14.3998 15.7802Z" />
</svg>

<?xml version="1.0" encoding="UTF-8"?>
<svg width="24" height="24" viewBox="0 0 24 24" xmlns="http://www.w3.org/2000/svg">
 <path d="M16.19 2H7.81C4.17 2 2 4.17 2 7.81V16.18C2 19.83 4.17 22 7.81 22H16.18C19.82 22 21.99 19.83 21.99 16.19V7.81C22 4.17 19.83 2 16.19 2Z" opacity=".4"/>
 <path d="m9.6002 15.78c-0.19 0-0.38-0.07-0.53001-0.22l-2.49-2.49c-0.59-0.59-0.59-1.54 0-2.13l2.49-2.49c0.29-0.29 0.77001-0.29 1.06 0s0.29 0.77 0 1.06l-2.49 2.49 2.49 2.5c0.29 0.29 0.29 0.77 0 1.06-0.15 0.14-0.34 0.22-0.53 0.22z"/>
 <path d="m14.4 15.78c-0.19 0-0.38-0.07-0.53-0.22-0.29-0.29-0.29-0.77 0-1.06l2.49-2.5-2.49-2.5c-0.29-0.29-0.29-0.77 0-1.06s0.77-0.29 1.06 0l2.49 2.49c0.59 0.59 0.59 1.54 0 2.13l-2.49 2.49c-0.14 0.15-0.34 0.23-0.53 0.23z"/>
</svg>
